X: 59
%
U:~=!turn!
T: The Braes of Mar
C:Old Set
O:Scotland
B:Keith Norman MacDonald : "The Skye collection of the best reels & strathspeys extant" : 1887
Z:Ralph Palmer
R:Strathspey
M:C
L:1/8
K:D
A | (F<A) AB/c/ d>ef>e | {/c}d<BTB>A {/c}(d<B) TB(A/G/) | F<AA>B {/c}d<eTf>d | e<gf<a Te2 {/c}d ::
g | (f<a) Ta2 f<d a>f | (g<b) b2 {/f}g<e b>g | (f<a) Ta2 f<da>f | g<bf<a Te2 {/e}d :]


